app/assets/images/icons/active/lp-reviewed.svg

<?xml version="1.0" encoding="UTF-8" standalone="no"?>
<svg width="32px" height="232px" viewBox="0 0 32 232" version="1.1" xmlns="http://www.w3.org/2000/svg" xmlns:xlink="http://www.w3.org/1999/xlink" xmlns:sketch="http://www.bohemiancoding.com/sketch/ns">
    <title>lp-reviewed</title>
    <description>Created with Sketch (http://www.bohemiancoding.com/sketch)</description>
    <defs></defs>
    <g id="Brand" stroke="none" stroke-width="1" fill="none" fill-rule="evenodd" sketch:type="MSPage">
        <path d="M24.999235,145.58793 L16.598725,145.58793 L10.600255,149.99993 L10.600255,145.58793 L7.00076498,145.58793 C5.34942626,145.58793 4,144.26493 4,142.64693 L4,127.94093 C4,126.32293 5.34942626,124.99993 7.00076498,124.99993 L24.999235,124.99993 C26.6485338,124.99993 28,126.32293 28,127.94093 L28,142.64693 C28,144.26493 26.6485338,145.58793 24.999235,145.58793 L24.999235,145.58793 L24.999235,145.58793 L24.999235,145.58793 Z M11.1439014,139.43393 L13.8488738,139.43393 L13.8488738,128.15393 L11.1439014,128.15393 L11.1439014,128.15393 L11.1439014,139.43393 L11.1439014,139.43393 Z M22.2840629,133.69693 C21.9454314,133.03293 21.5813005,132.56193 20.9948151,132.09093 C18.2204845,130.11893 14.5710157,132.08393 14.5026774,135.40193 L14.5026774,142.43093 L17.120952,142.43293 L17.120952,138.96993 L17.4157246,139.09593 C19.8453039,139.57393 21.5394815,138.61693 22.2840629,137.04993 C23.120442,135.29293 22.2840629,133.69693 22.2840629,133.69693 L22.2840629,133.69693 L22.2840629,133.69693 L22.2840629,133.69693 Z M18.6662133,137.00493 C17.718657,137.00493 16.9434764,136.24893 16.9434764,135.31593 C16.9434764,134.37993 17.718657,133.62493 18.6662133,133.62493 C19.6188695,133.62493 20.3960901,134.37993 20.3960901,135.31593 C20.3960901,136.24893 19.6188695,137.00493 18.6662133,137.00493 L18.6662133,137.00493 Z M18.6662133,137.00493" id="lp-reviewed--lp-blue" fill="#206FAC" sketch:type="MSShapeGroup"></path>
        <path d="M24.999235,105.58793 L16.598725,105.58793 L10.600255,109.99993 L10.600255,105.58793 L7.00076498,105.58793 C5.34942626,105.58793 4,104.26493 4,102.64693 L4,87.9409304 C4,86.3229304 5.34942626,84.9999304 7.00076498,84.9999304 L24.999235,84.9999304 C26.6485338,84.9999304 28,86.3229304 28,87.9409304 L28,102.64693 C28,104.26493 26.6485338,105.58793 24.999235,105.58793 L24.999235,105.58793 L24.999235,105.58793 L24.999235,105.58793 Z M11.1439014,99.4339304 L13.8488738,99.4339304 L13.8488738,88.1539304 L11.1439014,88.1539304 L11.1439014,88.1539304 L11.1439014,99.4339304 L11.1439014,99.4339304 Z M22.2840629,93.6969304 C21.9454314,93.0329304 21.5813005,92.5619304 20.9948151,92.0909304 C18.2204845,90.1189304 14.5710157,92.0839304 14.5026774,95.4019304 L14.5026774,102.43093 L17.120952,102.43293 L17.120952,98.9699304 L17.4157246,99.0959304 C19.8453039,99.5739304 21.5394815,98.6169304 22.2840629,97.0499304 C23.120442,95.2929304 22.2840629,93.6969304 22.2840629,93.6969304 L22.2840629,93.6969304 L22.2840629,93.6969304 L22.2840629,93.6969304 Z M18.6662133,97.0049304 C17.718657,97.0049304 16.9434764,96.2489304 16.9434764,95.3159304 C16.9434764,94.3799304 17.718657,93.6249304 18.6662133,93.6249304 C19.6188695,93.6249304 20.3960901,94.3799304 20.3960901,95.3159304 C20.3960901,96.2489304 19.6188695,97.0049304 18.6662133,97.0049304 L18.6662133,97.0049304 Z M18.6662133,97.0049304" id="lp-reviewed--white" fill="#FFFFFF" sketch:type="MSShapeGroup"></path>
        <path d="M24.999235,65.088 L16.598725,65.088 L10.600255,69.5 L10.600255,65.088 L7.00076498,65.088 C5.34942626,65.088 4,63.765 4,62.147 L4,47.441 C4,45.823 5.34942626,44.5 7.00076498,44.5 L24.999235,44.5 C26.6485338,44.5 28,45.823 28,47.441 L28,62.147 C28,63.765 26.6485338,65.088 24.999235,65.088 L24.999235,65.088 L24.999235,65.088 L24.999235,65.088 Z M11.1439014,58.934 L13.8488738,58.934 L13.8488738,47.654 L11.1439014,47.654 L11.1439014,47.654 L11.1439014,58.934 L11.1439014,58.934 Z M22.2840629,53.197 C21.9454314,52.533 21.5813005,52.062 20.9948151,51.591 C18.2204845,49.619 14.5710157,51.584 14.5026774,54.902 L14.5026774,61.931 L17.120952,61.933 L17.120952,58.47 L17.4157246,58.596 C19.8453039,59.074 21.5394815,58.117 22.2840629,56.55 C23.120442,54.793 22.2840629,53.197 22.2840629,53.197 L22.2840629,53.197 L22.2840629,53.197 L22.2840629,53.197 Z M18.6662133,56.505 C17.718657,56.505 16.9434764,55.749 16.9434764,54.816 C16.9434764,53.88 17.718657,53.125 18.6662133,53.125 C19.6188695,53.125 20.3960901,53.88 20.3960901,54.816 C20.3960901,55.749 19.6188695,56.505 18.6662133,56.505 L18.6662133,56.505 Z M18.6662133,56.505" id="lp-reviewed--body-grey" fill="#67737B" sketch:type="MSShapeGroup"></path>
        <path d="M24.999235,25.5879304 L16.598725,25.5879304 L10.600255,29.9999304 L10.600255,25.5879304 L7.00076498,25.5879304 C5.34942626,25.5879304 4,24.2649304 4,22.6469304 L4,7.94093039 C4,6.32293039 5.34942626,4.99993039 7.00076498,4.99993039 L24.999235,4.99993039 C26.6485338,4.99993039 28,6.32293039 28,7.94093039 L28,22.6469304 C28,24.2649304 26.6485338,25.5879304 24.999235,25.5879304 L24.999235,25.5879304 L24.999235,25.5879304 L24.999235,25.5879304 Z M11.1439014,19.4339304 L13.8488738,19.4339304 L13.8488738,8.15393039 L11.1439014,8.15393039 L11.1439014,8.15393039 L11.1439014,19.4339304 L11.1439014,19.4339304 Z M22.2840629,13.6969304 C21.9454314,13.0329304 21.5813005,12.5619304 20.9948151,12.0909304 C18.2204845,10.1189304 14.5710157,12.0839304 14.5026774,15.4019304 L14.5026774,22.4309304 L17.120952,22.4329304 L17.120952,18.9699304 L17.4157246,19.0959304 C19.8453039,19.5739304 21.5394815,18.6169304 22.2840629,17.0499304 C23.120442,15.2929304 22.2840629,13.6969304 22.2840629,13.6969304 L22.2840629,13.6969304 L22.2840629,13.6969304 L22.2840629,13.6969304 Z M18.6662133,17.0049304 C17.718657,17.0049304 16.9434764,16.2489304 16.9434764,15.3159304 C16.9434764,14.3799304 17.718657,13.6249304 18.6662133,13.6249304 C19.6188695,13.6249304 20.3960901,14.3799304 20.3960901,15.3159304 C20.3960901,16.2489304 19.6188695,17.0049304 18.6662133,17.0049304 L18.6662133,17.0049304 Z M18.6662133,17.0049304" id="lp-reviewed--title-grey" fill="#3A434E" sketch:type="MSShapeGroup"></path>
    </g>
</svg>

<svg width="32" height="232" viewBox="0 0 32 232" xmlns="http://www.w3.org/2000/svg" xmlns:sketch="http://www.bohemiancoding.com/sketch/ns"><title>lp-reviewed</title><g sketch:type="MSPage" fill="none"><path d="M24.999 145.588h-8.401l-5.998 4.412v-4.412h-3.599c-1.651 0-3.001-1.323-3.001-2.941v-14.706c0-1.618 1.349-2.941 3.001-2.941h17.998c1.649 0 3.001 1.323 3.001 2.941v14.706c0 1.618-1.351 2.941-3.001 2.941zm-13.855-6.154h2.705v-11.28h-2.705v11.28zm11.14-5.737c-.339-.664-.703-1.135-1.289-1.606-2.774-1.972-6.424-.007-6.492 3.311v7.029l2.618.002v-3.463l.295.126c2.43.478 4.124-.479 4.868-2.046.836-1.757 0-3.353 0-3.353zm-3.618 3.308c-.948 0-1.723-.756-1.723-1.689 0-.936.775-1.691 1.723-1.691.953 0 1.73.755 1.73 1.691 0 .933-.777 1.689-1.73 1.689zm0 0" fill="#206FAC" sketch:type="MSShapeGroup"/><path d="M24.999 105.588h-8.401l-5.998 4.412v-4.412h-3.599c-1.651 0-3.001-1.323-3.001-2.941v-14.706c0-1.618 1.349-2.941 3.001-2.941h17.998c1.649 0 3.001 1.323 3.001 2.941v14.706c0 1.618-1.351 2.941-3.001 2.941zm-13.855-6.154h2.705v-11.28h-2.705v11.28zm11.14-5.737c-.339-.664-.703-1.135-1.289-1.606-2.774-1.972-6.424-.007-6.492 3.311v7.029l2.618.002v-3.463l.295.126c2.43.478 4.124-.479 4.868-2.046.836-1.757 0-3.353 0-3.353zm-3.618 3.308c-.948 0-1.723-.756-1.723-1.689 0-.936.775-1.691 1.723-1.691.953 0 1.73.755 1.73 1.691 0 .933-.777 1.689-1.73 1.689zm0 0" fill="#fff" sketch:type="MSShapeGroup"/><path d="M24.999 65.088h-8.401l-5.998 4.412v-4.412h-3.599c-1.651 0-3.001-1.323-3.001-2.941v-14.706c0-1.618 1.349-2.941 3.001-2.941h17.998c1.649 0 3.001 1.323 3.001 2.941v14.706c0 1.618-1.351 2.941-3.001 2.941zm-13.855-6.154h2.705v-11.28h-2.705v11.28zm11.14-5.737c-.339-.664-.703-1.135-1.289-1.606-2.774-1.972-6.424-.007-6.492 3.311v7.029l2.618.002v-3.463l.295.126c2.43.478 4.124-.479 4.868-2.046.836-1.757 0-3.353 0-3.353zm-3.618 3.308c-.948 0-1.723-.756-1.723-1.689 0-.936.775-1.691 1.723-1.691.953 0 1.73.755 1.73 1.691 0 .933-.777 1.689-1.73 1.689zm0 0" fill="#67737B" sketch:type="MSShapeGroup"/><path d="M24.999 25.588h-8.401l-5.998 4.412v-4.412h-3.599c-1.651 0-3.001-1.323-3.001-2.941v-14.706c0-1.618 1.349-2.941 3.001-2.941h17.998c1.649 0 3.001 1.323 3.001 2.941v14.706c0 1.618-1.351 2.941-3.001 2.941zm-13.855-6.154h2.705v-11.28h-2.705v11.28zm11.14-5.737c-.339-.664-.703-1.135-1.289-1.606-2.774-1.972-6.424-.007-6.492 3.311v7.029l2.618.002v-3.463l.295.126c2.43.478 4.124-.479 4.868-2.046.836-1.757 0-3.353 0-3.353zm-3.618 3.308c-.948 0-1.723-.756-1.723-1.689 0-.936.775-1.691 1.723-1.691.953 0 1.73.755 1.73 1.691 0 .933-.777 1.689-1.73 1.689zm0 0" fill="#3A434E" sketch:type="MSShapeGroup"/></g></svg>
